X:247
T: ES WOLLTE EIN MAEDCHEN DIE LAEMMLEIN HUETEN
N: E0126
O: Europa, Mitteleuropa, Deutschland, Rheinland
R: erzaehlendes Volks - Lied, Schalk -, Schelmen - Lied, betrogene Liebe
M: 6/8
L: 1/16
K: F
C2 | F2C2F2A2F2A2 | c2d2c2A2F2
FA | c8G2B2 | A4z6
C2 | F2C2F2A2F2A2 | c2d2c2A2F2
FA | c8G2B2 | A4z6
A2 | A2G2G2G2F2F2 | A2B2A2G4
GA | B2B2B2B2c2d2 | d2c2c2A4
cf | f2c2c2c2B2A2 | B8G2c2 | A4z6

